; generated by PrusaSlicer 2.7.0+win64 on 2024-08-14 at 12:02:59 UTC


;
;
; 

; external perimeters extrusion width = 0.45mm
; perimeters extrusion width = 0.45mm
; infill extrusion width = 0.45mm
; solid infill extrusion width = 0.45mm
; top infill extrusion width = 0.40mm
; first layer extrusion width = 0.42mm

M73 P0 R35
M73 Q0 S35
M201 X1000 Y1000 Z200 E5000 ; sets maximum accelerations, mm/sec^2
M203 X200 Y200 Z12 E120 ; sets maximum feedrates, mm / sec
M204 S1250 T1250 ; sets acceleration (S) and retract acceleration (R), mm/sec^2
M205 X8.00 Y8.00 Z0.40 E4.50 ; sets the jerk limits, mm/sec
M205 S0 T0 ; sets the minimum extruding and travel feed rate, mm/sec

; printing object mic holder.stl id:0 copy 0
; stop printing object mic holder.stl id:0 copy 0

;TYPE:Custom
M862.3 P "MK3S" ; printer model check
M862.1 P0.4 ; nozzle diameter check
M115 U3.13.2 ; tell printer latest fw version
G90 ; use absolute coordinates
M83 ; extruder relative mode
M104 S215 ; set extruder temp
M140 S60 ; set bed temp
M190 S60 ; wait for bed temp
M109 S215 ; wait for extruder temp
G28 W ; home all without mesh bed level
G80 X113.324 Y84.5573 W23.3511 H40.8854 ; mesh bed levelling

G1 Z0.2 F720
G1 Y-3 F1000 ; go outside print area
G92 E0
G1 X60 E9 F1000 ; intro line
G1 X100 E12.5 F1000 ; intro line

G92 E0
M221 S95

; Don't change E values below. Excessive value can damage the printer.

M907 E538 ; set extruder motor current
G21 ; set units to millimeters
G90 ; use absolute coordinates
M83 ; use relative distances for extrusion
M900 K0.05 ; Filament gcode LA 1.5
M900 K30 ; Filament gcode LA 1.0

M107
;LAYER_CHANGE
;Z:0.2
;HEIGHT:0.2
;BEFORE_LAYER_CHANGE
G92 E0.0
;0.2


G1 E-.8 F2100
G1 Z.2 F720
;AFTER_LAYER_CHANGE
;0.2
G1 X113.906 Y86.083 F10800
G1 Z.2 F720
G1 E.8 F2100
M204 S800
;TYPE:Skirt/Brim
;WIDTH:0.42
G1 F1200
G1 X114.972 Y85.069 E.04613
G1 X116.267 Y84.746 E.04185
G1 X133.733 Y84.746 E.54763
G1 X135.15 Y85.139 E.04611
G1 X136.163 Y86.205 E.04611
G1 X136.487 Y87.5 E.04186
G1 X136.487 Y122.5 E1.0974
G1 X136.094 Y123.917 E.04611
G1 X135.028 Y124.931 E.04613
G1 X133.733 Y125.254 E.04185
G1 X116.267 Y125.254 E.54763
G1 X114.85 Y124.861 E.04611
G1 X113.837 Y123.795 E.04611
G1 X113.513 Y122.5 E.04186
G1 X113.513 Y87.5 E1.0974
G1 X113.89 Y86.14 E.04425
M204 S1000
G1 X114.264 Y86.252 F10800
M204 S800
G1 F1200
G1 X114.282 Y86.193 E.00193
G1 X115.327 Y85.317 E.04275
G1 X116.267 Y85.123 E.03009
G1 X133.733 Y85.123 E.54763
G1 X135.04 Y85.515 E.04278
G1 X135.916 Y86.56 E.04275
G1 X136.11 Y87.5 E.03009
G1 X136.11 Y122.5 E1.0974
G1 X135.718 Y123.807 E.04278
G1 X134.673 Y124.683 E.04275
G1 X133.733 Y124.877 E.03009
G1 X116.267 Y124.877 E.54763
G1 X114.96 Y124.485 E.04278
G1 X114.084 Y123.44 E.04275
G1 X113.89 Y122.5 E.03009
G1 X113.89 Y87.5 E1.0974
G1 X114.247 Y86.31 E.03895
M204 S1000
; printing object mic holder.stl id:0 copy 0
;WIPE_START
G1 F8640
M73 P0 R34
G1 X114.264 Y86.252 E-.01396
G1 X114.282 Y86.193 E-.01424
G1 X115.327 Y85.317 E-.31486
G1 X116.267 Y85.123 E-.22162
G1 X117.286 Y85.123 E-.23532
;WIPE_END
G1 Z.6 F720
G1 X132.946 Y121.713 F10800
G1 Z.2 F720
G1 E.8 F2100
M204 S800
;TYPE:Perimeter
;WIDTH:0.419999
G1 F1200
G1 X117.054 Y121.713 E.49828
G1 X117.054 Y88.287 E1.04805
G1 X132.946 Y88.287 E.49828
M73 P1 R34
M73 Q1 S34
G1 X132.946 Y96.233 E.24914
G1 X132.946 Y121.653 E.79702
M204 S1000
G1 X133.323 Y122.09 F10800
M204 S800
;TYPE:External perimeter
G1 F1200
G1 X116.677 Y122.09 E.52192
G1 X116.677 Y87.91 E1.07169
G1 X133.323 Y87.91 E.52192
G1 X133.323 Y96.233 E.26096
G1 X133.323 Y122.03 E.80885
M204 S1000
;WIPE_START
G1 F8640
G1 X133.323 Y122.09 E-.01385
G1 X129.918 Y122.09 E-.78615
;WIPE_END
G1 Z.6 F720
G1 X132.011 Y88.457 F10800
G1 Z.2 F720
G1 E.8 F2100
M204 S800
;TYPE:Solid infill
;WIDTH:0.421448
G1 F1200
G1 X132.606 Y89.052 E.02648
G1 X132.606 Y89.588 E.01687
G1 X131.645 Y88.626 E.0428
G1 X131.11 Y88.626 E.01684
G1 X132.606 Y90.123 E.06661
G1 X132.606 Y90.658 E.01684
G1 X130.574 Y88.626 E.09045
G1 X130.039 Y88.626 E.01684
G1 X132.606 Y91.194 E.11428
G1 X132.606 Y91.729 E.01684
G1 X129.504 Y88.626 E.1381
G1 X128.969 Y88.626 E.01684
G1 X132.606 Y92.264 E.16191
G1 X132.606 Y92.8 E.01687
G1 X128.433 Y88.626 E.18577
G1 X127.898 Y88.626 E.01684
G1 X132.606 Y93.335 E.20958
G1 X132.606 Y93.87 E.01684
G1 X127.363 Y88.626 E.2334
G1 X126.827 Y88.626 E.01687
G1 X132.606 Y94.406 E.25726
G1 X132.606 Y94.941 E.01684
G1 X126.292 Y88.626 E.28107
G1 X125.757 Y88.626 E.01684
G1 X132.606 Y95.476 E.30488
G1 X132.606 Y96.012 E.01687
G1 X125.221 Y88.626 E.32874
G1 X124.686 Y88.626 E.01684
G1 X132.606 Y96.547 E.35256
G1 X132.606 Y97.082 E.01684
G1 X124.151 Y88.626 E.37637
G1 X123.615 Y88.626 E.01687
G1 X132.606 Y97.618 E.40023
G1 X132.606 Y98.153 E.01684
G1 X123.08 Y88.626 E.42404
G1 X122.545 Y88.626 E.01684
G1 X132.606 Y98.688 E.44786
G1 X132.606 Y99.223 E.01684
G1 X122.009 Y88.626 E.47169
G1 X121.474 Y88.626 E.01684
G1 X132.606 Y99.759 E.49553
G1 X132.606 Y100.294 E.01684
G1 X120.939 Y88.626 E.51934
G1 X120.403 Y88.626 E.01687
G1 X132.606 Y100.829 E.54318
G1 X132.606 Y101.365 E.01687
G1 X119.868 Y88.626 E.56702
G1 X119.333 Y88.626 E.01684
M73 P2 R34
M73 Q2 S34
G1 X132.606 Y101.9 E.59083
G1 X132.606 Y102.435 E.01684
G1 X118.797 Y88.626 E.61467
G1 X118.262 Y88.626 E.01684
G1 X132.606 Y102.971 E.6385
G1 X132.606 Y103.506 E.01684
G1 X117.727 Y88.626 E.66232
G1 X117.394 Y88.626 E.01048
G1 X117.394 Y88.829 E.00639
G1 X132.606 Y104.041 E.67712
G1 X132.606 Y104.577 E.01687
G1 X117.394 Y89.364 E.67714
G1 X117.394 Y89.899 E.01684
G1 X132.606 Y105.112 E.67714
G1 X132.606 Y105.647 E.01684
G1 X117.394 Y90.434 E.67714
G1 X117.394 Y90.97 E.01687
G1 X132.606 Y106.183 E.67714
G1 X132.606 Y106.718 E.01684
G1 X117.394 Y91.505 E.67714
G1 X117.394 Y92.04 E.01684
G1 X132.606 Y107.253 E.67714
G1 X132.606 Y107.789 E.01687
G1 X117.394 Y92.576 E.67714
G1 X117.394 Y93.111 E.01684
G1 X132.606 Y108.324 E.67714
G1 X132.606 Y108.859 E.01684
G1 X117.394 Y93.646 E.67714
G1 X117.394 Y94.182 E.01687
G1 X132.606 Y109.395 E.67714
G1 X132.606 Y109.93 E.01684
G1 X117.394 Y94.717 E.67714
G1 X117.394 Y95.252 E.01684
G1 X132.606 Y110.465 E.67714
G1 X132.606 Y111.001 E.01687
G1 X117.394 Y95.788 E.67714
G1 X117.394 Y96.323 E.01684
G1 X132.606 Y111.536 E.67714
G1 X132.606 Y112.071 E.01684
M73 P3 R34
M73 Q3 S34
G1 X117.394 Y96.858 E.67714
G1 X117.394 Y97.394 E.01687
G1 X132.606 Y112.606 E.67712
G1 X132.606 Y113.142 E.01687
G1 X117.394 Y97.929 E.67714
G1 X117.394 Y98.464 E.01684
G1 X132.606 Y113.677 E.67714
G1 X132.606 Y114.212 E.01684
G1 X117.394 Y99 E.67712
G1 X117.394 Y99.535 E.01684
G1 X132.606 Y114.748 E.67714
G1 X132.606 Y115.283 E.01684
G1 X117.394 Y100.07 E.67714
G1 X117.394 Y100.606 E.01687
G1 X132.606 Y115.818 E.67712
G1 X132.606 Y116.354 E.01687
G1 X117.394 Y101.141 E.67714
G1 X117.394 Y101.676 E.01684
G1 X132.606 Y116.889 E.67714
G1 X132.606 Y117.424 E.01684
G1 X117.394 Y102.212 E.67712
G1 X117.394 Y102.747 E.01684
G1 X132.606 Y117.96 E.67714
G1 X132.606 Y118.495 E.01684
G1 X117.394 Y103.282 E.67714
G1 X117.394 Y103.817 E.01684
G1 X132.606 Y119.03 E.67714
G1 X132.606 Y119.566 E.01687
M73 P3 R33
G1 X117.394 Y104.353 E.67714
G1 X117.394 Y104.888 E.01684
G1 X132.606 Y120.101 E.67714
G1 X132.606 Y120.636 E.01684
M73 Q3 S33
G1 X117.394 Y105.423 E.67714
G1 X117.394 Y105.959 E.01687
G1 X132.606 Y121.172 E.67714
G1 X132.606 Y121.374 E.00636
G1 X132.273 Y121.374 E.01048
G1 X117.394 Y106.494 E.66232
G1 X117.394 Y107.029 E.01684
M73 P4 R33
M73 Q4 S33
G1 X131.738 Y121.374 E.6385
G1 X131.202 Y121.374 E.01687
G1 X117.394 Y107.565 E.61464
G1 X117.394 Y108.1 E.01684
G1 X130.667 Y121.374 E.59083
G1 X130.132 Y121.374 E.01684
G1 X117.394 Y108.635 E.56702
G1 X117.394 Y109.171 E.01687
G1 X129.596 Y121.374 E.54316
G1 X129.061 Y121.374 E.01684
G1 X117.394 Y109.706 E.51934
G1 X117.394 Y110.241 E.01684
G1 X128.526 Y121.374 E.49553
G1 X127.991 Y121.374 E.01684
G1 X117.394 Y110.777 E.47169
G1 X117.394 Y111.312 E.01684
G1 X127.455 Y121.374 E.44786
G1 X126.92 Y121.374 E.01684
G1 X117.394 Y111.847 E.42404
G1 X117.394 Y112.383 E.01687
G1 X126.385 Y121.374 E.40021
G1 X125.849 Y121.374 E.01687
G1 X117.394 Y112.918 E.37637
G1 X117.394 Y113.453 E.01684
G1 X125.314 Y121.374 E.35256
G1 X124.779 Y121.374 E.01684
G1 X117.394 Y113.989 E.32872
G1 X117.394 Y114.524 E.01684
G1 X124.243 Y121.374 E.30488
G1 X123.708 Y121.374 E.01684
G1 X117.394 Y115.059 E.28107
G1 X117.394 Y115.594 E.01684
G1 X123.173 Y121.374 E.25726
G1 X122.637 Y121.374 E.01687
G1 X117.394 Y116.13 E.2334
G1 X117.394 Y116.665 E.01684
G1 X122.102 Y121.374 E.20958
G1 X121.567 Y121.374 E.01684
G1 X117.394 Y117.2 E.18577
G1 X117.394 Y117.736 E.01687
G1 X121.031 Y121.374 E.16191
G1 X120.496 Y121.374 E.01684
G1 X117.394 Y118.271 E.1381
G1 X117.394 Y118.806 E.01684
G1 X119.961 Y121.374 E.11428
G1 X119.425 Y121.374 E.01687
G1 X117.394 Y119.342 E.09043
G1 X117.394 Y119.877 E.01684
G1 X118.89 Y121.374 E.06661
G1 X118.355 Y121.374 E.01684
G1 X117.394 Y120.412 E.0428
G1 X117.394 Y120.948 E.01687
G1 X117.989 Y121.543 E.02648
M204 S1000
; stop printing object mic holder.stl id:0 copy 0
M106 S84.15
;LAYER_CHANGE
;Z:0.35
;HEIGHT:0.15
;BEFORE_LAYER_CHANGE
G92 E0.0
;0.35


;WIPE_START
G1 F8640
G1 X117.394 Y120.948 E-.19429
G1 X117.394 Y120.412 E-.12376
G1 X118.355 Y121.374 E-.31397
G1 X118.89 Y121.374 E-.12353
G1 X118.754 Y121.238 E-.04445
;WIPE_END
G1 Z.35 F720
;AFTER_LAYER_CHANGE
;0.35
M104 S210 ; set temperature
G1 Z.75
G1 X118.754 Y125.254 F10800
G1 Z.35 F720
G1 E.8 F2100
;TYPE:Skirt/Brim
;WIDTH:0.42
G1 F3000
G1 X116.267 Y125.254 E.06015
G1 X114.85 Y124.861 E.03556
G1 X113.837 Y123.795 E.03557
G1 X113.513 Y122.5 E.03228
G1 X113.513 Y87.5 E.84647
G1 X113.906 Y86.083 E.03556
G1 X114.972 Y85.069 E.03558
G1 X116.267 Y84.746 E.03228
G1 X133.733 Y84.746 E.42241
G1 X135.15 Y85.139 E.03556
G1 X136.163 Y86.205 E.03557
G1 X136.487 Y87.5 E.03228
G1 X136.487 Y122.5 E.84647
G1 X136.094 Y123.917 E.03556
G1 X135.028 Y124.931 E.03558
G1 X133.733 Y125.254 E.03228
G1 X118.814 Y125.254 E.36081
G1 X118.814 Y124.877 F10800
G1 F3000
G1 X116.267 Y124.877 E.0616
G1 X114.96 Y124.485 E.033
G1 X114.084 Y123.44 E.03298
G1 X113.89 Y122.5 E.02321
G1 X113.89 Y87.5 E.84647
G1 X114.282 Y86.193 E.033
G1 X115.327 Y85.317 E.03298
G1 X116.267 Y85.123 E.02321
G1 X133.733 Y85.123 E.42241
G1 X135.04 Y85.515 E.033
G1 X135.916 Y86.56 E.03298
G1 X136.11 Y87.5 E.02321
G1 X136.11 Y122.5 E.84647
G1 X135.718 Y123.807 E.033
G1 X134.673 Y124.683 E.03298
G1 X133.733 Y124.877 E.02321
G1 X118.874 Y124.877 E.35936
; printing object mic holder.stl id:0 copy 0
;WIPE_START
G1 F8640
M73 Q5 S33
G1 X118.814 Y124.877 E-.01385
G1 X116.267 Y124.877 E-.58811
G1 X115.446 Y124.631 E-.19804
;WIPE_END
G1 Z.75 F720
M73 P5 R33
G1 X133.09 Y121.857 F10800
G1 Z.35 F720
G1 E.8 F2100
M204 S800
;TYPE:Perimeter
;WIDTH:0.449999
G1 F2809.628
G1 X116.91 Y121.857 E.42158
G1 F3123.848
G1 X116.91 Y88.143 E.87844
G1 F3600
G1 X133.09 Y88.143 E.42158
G1 F2809.628
G1 X133.09 Y96.233 E.21079
G1 F3600
G1 X133.09 Y121.797 E.66609
M204 S1000
G1 X133.508 Y122.275 F10800
M204 S800
;TYPE:External perimeter
G1 F1825.589
G1 X116.492 Y122.275 E.44336
G1 X116.492 Y121.6 E.01759
G1 F1958.148
G1 X116.492 Y88.4 E.86505
G1 F1825.589
G1 X116.492 Y87.725 E.01759
G1 F1865.207
G1 X117.167 Y87.725 E.01759
G1 F2100
G1 X132.833 Y87.725 E.40819
G1 F1865.207
G1 X133.508 Y87.725 E.01759
G1 F1825.589
G1 X133.508 Y96.233 E.22168
G1 F1865.207
G1 X133.508 Y96.908 E.01759
G1 F2099.997
G1 X133.508 Y121.6 E.64337
G1 X133.508 Y122.215 E.01602
M204 S1000
;WIPE_START
G1 F8640
G1 X133.508 Y122.275 E-.01385
G1 X130.103 Y122.275 E-.78615
;WIPE_END
G1 Z.75 F720
G1 X117.399 Y88.553 F10800
G1 Z.35 F720
G1 E.8 F2100
;TYPE:Solid infill
;WIDTH:0.55137
G1 F11556.686
G1 X117.353 Y88.507 E.00211
G1 X117.291 Y88.524 E.00208
G1 X117.274 Y88.586 E.00208
G1 X117.32 Y88.632 E.00211
G1 X117.383 Y88.615 E.00211
;WIDTH:0.449999
G1 F12000
G1 X118.05 Y88.519 E.01756
G1 X117.217 Y89.357 E.03079
;WIDTH:0.411095
G1 X117.149 Y89.432 E.00239
;WIDTH:0.37219
G1 X117.078 Y89.413 E.00156
G1 X117.097 Y89.484 E.00156
G1 X117.138 Y89.473 E.0009
;WIDTH:0.449999
G1 X117.286 Y89.874 E.01114
G1 X118.641 Y88.519 E.04993
G1 X119.232 Y88.519 E.0154
G1 X117.286 Y90.465 E.07171
G1 X117.286 Y91.055 E.01537
G1 X119.823 Y88.519 E.09347
G1 X120.413 Y88.519 E.01537
G1 X117.286 Y91.646 E.11522
G1 X117.286 Y92.237 E.0154
G1 X121.004 Y88.519 E.137
G1 X121.595 Y88.519 E.0154
G1 X117.286 Y92.828 E.15878
G1 X117.286 Y93.419 E.0154
G1 X122.186 Y88.519 E.18056
G1 X122.777 Y88.519 E.0154
G1 X117.286 Y94.01 E.20233
G1 X117.286 Y94.601 E.0154
G1 X123.368 Y88.519 E.22411
G1 X123.959 Y88.519 E.0154
G1 X117.286 Y95.191 E.24587
G1 X117.286 Y95.782 E.0154
G1 X124.549 Y88.519 E.26763
G1 X125.14 Y88.519 E.0154
G1 X117.286 Y96.373 E.28941
G1 X117.286 Y96.964 E.0154
G1 X125.731 Y88.519 E.31118
G1 X126.322 Y88.519 E.0154
G1 X117.286 Y97.555 E.33296
G1 X117.286 Y98.146 E.0154
G1 X126.913 Y88.519 E.35474
G1 X127.504 Y88.519 E.0154
G1 X117.286 Y98.737 E.37652
G1 X117.286 Y99.328 E.0154
G1 X128.095 Y88.519 E.39829
G1 X128.686 Y88.519 E.0154
G1 X117.286 Y99.918 E.42005
G1 X117.286 Y100.509 E.0154
G1 X129.276 Y88.519 E.44181
G1 X129.867 Y88.519 E.0154
G1 X117.286 Y101.1 E.46359
G1 X117.286 Y101.691 E.0154
G1 X130.458 Y88.519 E.48537
G1 X131.049 Y88.519 E.0154
G1 X117.286 Y102.282 E.50714
G1 X117.286 Y102.873 E.0154
G1 X131.64 Y88.519 E.52892
G1 X132.231 Y88.519 E.0154
G1 X117.286 Y103.464 E.5507
G1 X117.286 Y104.055 E.0154
G1 X132.714 Y88.626 E.56851
G1 X132.793 Y88.524 E.00336
;WIDTH:0.411095
G1 X132.872 Y88.421 E.00307
;WIDTH:0.37219
G1 X132.831 Y88.432 E.0009
G1 X132.812 Y88.361 E.00156
G1 X132.883 Y88.38 E.00156
G1 X132.714 Y89.217 F10800
;WIDTH:0.449999
G1 F12000
G1 X117.286 Y104.645 E.5685
G1 X117.286 Y105.236 E.0154
G1 X132.714 Y89.808 E.5685
G1 X132.714 Y90.399 E.0154
G1 X117.286 Y105.827 E.5685
G1 X117.286 Y106.418 E.0154
G1 X132.714 Y90.99 E.5685
G1 X132.714 Y91.581 E.0154
G1 X117.286 Y107.009 E.5685
G1 X117.286 Y107.6 E.0154
G1 X132.714 Y92.172 E.5685
G1 X132.714 Y92.763 E.0154
G1 X117.286 Y108.191 E.5685
G1 X117.286 Y108.782 E.0154
G1 X132.714 Y93.353 E.56851
G1 X132.714 Y93.944 E.0154
G1 X117.286 Y109.372 E.5685
G1 X117.286 Y109.963 E.0154
G1 X132.714 Y94.535 E.5685
G1 X132.714 Y95.126 E.0154
G1 X117.286 Y110.554 E.5685
G1 X117.286 Y111.145 E.0154
G1 X132.714 Y95.717 E.5685
G1 X132.714 Y96.308 E.0154
G1 X117.286 Y111.736 E.5685
G1 X117.286 Y112.327 E.0154
G1 X132.714 Y96.899 E.5685
G1 X132.714 Y97.49 E.0154
G1 X117.286 Y112.918 E.5685
G1 X117.286 Y113.508 E.01537
G1 X132.714 Y98.08 E.5685
G1 X132.714 Y98.671 E.0154
G1 X117.286 Y114.099 E.5685
G1 X117.286 Y114.69 E.0154
G1 X132.714 Y99.262 E.5685
G1 X132.714 Y99.853 E.0154
G1 X117.286 Y115.281 E.5685
G1 X117.286 Y115.872 E.0154
G1 X132.714 Y100.444 E.5685
G1 X132.714 Y101.035 E.0154
G1 X117.286 Y116.463 E.5685
G1 X117.286 Y117.054 E.0154
G1 X132.714 Y101.626 E.5685
G1 X132.714 Y102.217 E.0154
G1 X117.286 Y117.645 E.5685
G1 X117.286 Y118.235 E.01537
G1 X132.714 Y102.807 E.5685
G1 X132.714 Y103.398 E.0154
G1 X117.286 Y118.826 E.5685
G1 X117.286 Y119.417 E.0154
G1 X132.714 Y103.989 E.5685
G1 X132.714 Y104.58 E.0154
G1 X117.286 Y120.008 E.5685
G1 X117.286 Y120.599 E.0154
G1 X132.714 Y105.171 E.5685
G1 X132.714 Y105.762 E.0154
G1 X117.286 Y121.19 E.5685
G1 X117.263 Y121.373 E.00481
M73 P6 R33
M73 Q6 S33
;WIDTH:0.411095
G1 X117.24 Y121.557 E.00438
;WIDTH:0.37219
G1 X117.169 Y121.538 E.00156
G1 X117.188 Y121.609 E.00156
G1 X117.229 Y121.598 E.0009
;WIDTH:0.449999
G1 X117.585 Y121.481 E.00976
G1 X132.714 Y106.353 E.55746
G1 X132.714 Y106.943 E.01537
G1 X118.176 Y121.481 E.5357
G1 X118.767 Y121.481 E.0154
G1 X132.714 Y107.534 E.51392
G1 X132.714 Y108.125 E.0154
G1 X119.358 Y121.481 E.49215
G1 X119.949 Y121.481 E.0154
G1 X132.714 Y108.716 E.47037
G1 X132.714 Y109.307 E.0154
G1 X120.54 Y121.481 E.44859
G1 X121.131 Y121.481 E.0154
G1 X132.714 Y109.898 E.42681
G1 X132.714 Y110.489 E.0154
G1 X121.722 Y121.481 E.40504
G1 X122.312 Y121.481 E.01537
G1 X132.714 Y111.08 E.38328
G1 X132.714 Y111.67 E.01537
G1 X122.903 Y121.481 E.36152
G1 X123.494 Y121.481 E.0154
G1 X132.714 Y112.261 E.33974
